X:1
T:70
L:1/8
M:4/4
K:Bmin
V:1 treble nm="Piano" snm="Pno."
V:1
 B,>B, B,2 B,D F2 | (3GFG (3BAG F4 | F>B d2 (3ddd d2 | (3c-cB (3AEG F4 | F>B B2 (3FB-B F2 | %5
 G>F (3EDF E3 D/E/ | (3F^G^A B>B (3B=A=G FE | (3C-CF (3EF-F B,4 | (3z DC (3z DC z B,/D/ F2 | %9
 (3GzF (3EzB F3 B/c/ | (3dd z d2 c<c c2 | (3czd (3edc B3 A/G/ | (3F^G^A B>F (3B=A=G F z | %13
 C>F (3d^Ac B4 |] %14

